!!!COM: Beethoven
!!!OTL: 13 Variationen uber "Es war einmal ein alter Mann" aus "Das rote Kappchen" von K. Ditters von Dittersdorf
!!!Variation: Variation 7 c
**function	**harm	**kern	**kern
*	*	*clefF4	*clefG2
*	*	*k[f#c#g#]	*k[f#c#g#]
*M6/8	*M6/8	*M6/8	*M6/8
*A:	*A:	*A:	*A:
8D	8Vb	8GG#	8bJ
=274	=274	=274	=274
4.D	4.ii7b/V	8AAL	16B#LL
.	.	.	16c#
.	.	8E	16b
.	.	.	16c#
.	.	8F#J	16a
.	.	.	16c#JJ
4.D	4.V7/V	8BBL	16eLL
.	.	.	16d#
.	.	8F#	16a
.	.	.	16d#
.	.	8AJ	16a
.	.	.	16d#JJ
=275	=275	=275	=275
4.D	4.I/V	8EL	16f#LL
.	.	.	16e
.	.	8G#	16d#
.	.	.	16e
.	.	8BJ	16g#
.	.	.	16bJJ
4D	4I/V	8e	8eeL
.	.	8r	8gg#
8D	8Ib/V	8G#	8bJ
=276	=276	=276	=276
*	*	*clefG2	*
4.D	4.ii7b/V	8AL	16b#LL
.	.	.	16cc#
.	.	8e	16bb
.	.	.	16cc#
.	.	8f#J	16aa
.	.	.	16cc#JJ
4.D	4.V7/V	8BL	16eeLL
.	.	.	16dd#
.	.	8f#	16aa
.	.	.	16dd#
.	.	8aJ	16aa
.	.	.	16dd#JJ
=277	=277	=277	=277
4.D	4.I/V	8eL	16ff#LL
.	.	.	16ee
.	.	8g#J	16gg#
.	.	.	16ee
.	.	8r	16b
.	.	.	16g#JJ
4D	4I/V	4r	8eL
.	.	.	8g#
*	*	*clefF4	*
8D	8Ib/V	8GG#	8bJ
=278	=278	=278	=278
4.D	4.ii7b/V	8AAL	16B#LL
.	.	.	16c#
.	.	8E	16b
.	.	.	16c#
.	.	8F#J	16a
.	.	.	16c#JJ
4.D	4.V7/V	8BBL	16eLL
.	.	.	16d#
.	.	8F#	16a
.	.	.	16d#
.	.	8AJ	16a
.	.	.	16d#JJ
=279	=279	=279	=279
4.D	4.I/V	8EL	16f#LL
.	.	.	16e
.	.	8G#	16d#
.	.	.	16e
.	.	8BJ	16g#
.	.	.	16bJJ
4D	4I/V	8e	8eeL
.	.	8r	8gg#
8D	8Ib/V	8G#	8bJ
=280	=280	=280	=280
*	*	*clefG2	*
4.D	4.ii7b/V	8AL	16b#LL
.	.	.	16cc#
.	.	8e	16bb
.	.	.	16cc#
.	.	8f#J	16aa
.	.	.	16cc#JJ
4.D	4.V7/V	8BL	16eeLL
.	.	.	16dd#
.	.	8f#	16aa
.	.	.	16dd#
.	.	8aJ	16aa
.	.	.	16dd#JJ
=281	=281	=281	=281
4.D	4.Ic/V	8BL	16ff#LL
.	.	.	16ee
.	.	8g#	16dd#
.	.	.	16ee
.	.	8bJ	16bb
.	.	.	16eeJJ
4.D	4.V/V	8BL	16gg#LL
.	.	.	16ff#
.	.	8d#	16ee#
.	.	.	16ff#
.	.	8f#J	16bb
.	.	.	16ff#JJ
=282	=282	=282	=282
4.D	4.Cc/V	8BL	16aaLL
.	.	.	16gg#
.	.	8e	16ff#
.	.	.	16gg#
.	.	8g#J	16bb
.	.	.	16eeJJ
4.D	4.V7/V	8BL	16eeLL
.	.	.	16dd#
.	.	8f#	16cc#
.	.	.	16dd#
.	.	8aJ	16ff#
.	.	.	16bJJ
=283	=283	=283	=283
2.D	2.r	2.r;	2.r;
=284	=284	=284	=284
*	*	*clefF4	*
4.D	4.I/V	[4.E	4.r
*-	*-	*-	*-
